src/shared/_assets/icons/error.svg

<svg width="23" height="20" viewBox="0 0 23 20" fill="none" xmlns="http://www.w3.org/2000/svg">
<path d="M0 19.7207L11.4098 0L22.8196 19.7207H0ZM11.4098 16.4381C11.7026 16.4381 11.9542 16.3328 12.1647 16.1223C12.3752 15.9118 12.4805 15.6602 12.4805 15.3674C12.4805 15.0747 12.3752 14.8254 12.1647 14.6196C11.9542 14.4138 11.7026 14.3109 11.4098 14.3109C11.117 14.3109 10.8654 14.4138 10.6549 14.6196C10.4444 14.8254 10.3391 15.0747 10.3391 15.3674C10.3391 15.6602 10.4444 15.9118 10.6549 16.1223C10.8654 16.3328 11.117 16.4381 11.4098 16.4381ZM10.4098 13.4805H12.4098V8.6359H10.4098V13.4805Z" fill="#EF4444"/>
</svg>

<svg xmlns="http://www.w3.org/2000/svg" fill="none" viewBox="0 0 23 20"><path fill="currentColor" d="M0 19.72 11.41 0l11.41 19.72zm11.41-3.282q.439 0 .755-.316.316-.315.316-.755 0-.439-.316-.747a1.04 1.04 0 0 0-.755-.31q-.44 0-.755.31-.316.308-.316.747 0 .44.316.755.315.316.755.316m-1-2.957h2V8.636h-2z"/></svg>
